svgs/sharp-solid/ticket.svg

<svg xmlns="http://www.w3.org/2000/svg" viewBox="0 0 576 512"><!--! Font Awesome Pro 6.4.0 by @fontawesome - https://fontawesome.com License - https://fontawesome.com/license (Commercial License) Copyright 2023 Fonticons, Inc. --><path d="M576 64H0V208c26.5 0 48 21.5 48 48s-21.5 48-48 48V448H576V304c-26.5 0-48-21.5-48-48s21.5-48 48-48V64zM128 160V352H448V160H128zM96 128h32H448h32v32V352v32H448 128 96V352 160 128z"/></svg>

<svg xmlns="http://www.w3.org/2000/svg" viewBox="0 0 576 512"><!--! Font Awesome Pro 6.6.0 by @fontawesome - https://fontawesome.com License - https://fontawesome.com/license (Commercial License) Copyright 2024 Fonticons, Inc. --><path d="M576 64L0 64 0 208c26.5 0 48 21.5 48 48s-21.5 48-48 48L0 448l576 0 0-144c-26.5 0-48-21.5-48-48s21.5-48 48-48l0-144zM128 160l0 192 320 0 0-192-320 0zM96 128l32 0 320 0 32 0 0 32 0 192 0 32-32 0-320 0-32 0 0-32 0-192 0-32z"/></svg>
